X: 1
T: L\aat till Kim % av Torbj\"orn N\"asbom
C: av Torbj\"orn N\"asbom
S: Bruce Sagan's "scanfolk" session archive
F: https://app.box.com/s/u6iiren0igvsukrhdducy7orq72jayq8/file/849894518922 2021-8-22
R: waltz
Z: 2021 John Chambers <jc:trillian.mit.edu>
M: 3/4
L: 1/8
K: Am
|:\
AE Ac BA | BA GB A2 | ae eg ^fe | de^fd e2 |\
ae ^fd ec | d^f ec A2 | Bc BA GB | dc "^fine"A4 :|
|:\
FA dA FA | EA cA E2 | DB dc BA | ^Gd cd e2 |\
fd Bg fd | ec Af e2 | AF dc BA | ^GB A4 :|
